X: 695
T: Xiuxian youhu
L: 1/8
M: 2/4
K: D
A F E F [I:setbarnb 1]| 
A4 | 
d2f2 | 
e d c B | 
A F E F | 
A2d B | 
dA2d | 
A4 | 
A F E F | 
A4 | 
e2d2 | 
c BA2 | 
A2F2 | 
A d F E | 
DD2E | 
D4 | 
dA2B | 
A4 | 
A F E F | 
A4 | 
e2d2 | 
c BA2 | 
A2F2 | 
A B F E | 
DD2E | 
D4 |]

@@@ Tune index: 9569
